packages/web-icons/svgs/trash_2.svg

<svg viewBox="0 0 52 49" xmlns="http://www.w3.org/2000/svg" class="ridi_icon"><path d="M49.3 7.2H36.8V6c0-2.4-1.9-6-4.9-6H20c-3 0-4.9 3.5-4.9 6v1.2H2.7c-1 0-1.9.8-1.9 1.9 0 1.1.8 1.9 1.9 1.9h3.5l1 32.2c0 2.7 2.2 4.9 4.9 4.9H40c2.7 0 4.8-2.2 4.9-4.9l1-32.2h3.5c1 0 1.9-.8 1.9-1.9 0-1.1-1-1.9-2-1.9zM18.9 6c0-1 .8-2.2 1.1-2.2h12c.3.1 1.1 1.2 1.1 2.2v1.2H18.9V6zm22.2 37c0 .7-.5 1.2-1.1 1.2H12.1c-.6 0-1.1-.5-1.1-1.2v-.1l-1-32.1h32.2L41.1 43z"/><path d="M17.9 17.4c-1 0-1.9.8-1.9 1.9v16.6c0 1 .8 1.9 1.9 1.9 1.1 0 1.9-.8 1.9-1.9V19.3c-.1-1.1-.9-1.9-1.9-1.9zm8.7 0c-1 0-1.9.8-1.9 1.9v16.6c0 1 .8 1.9 1.9 1.9 1.1 0 1.9-.8 1.9-1.9V19.3c0-1.1-.8-1.9-1.9-1.9zm6.5 1.9v16.6c0 1 .8 1.9 1.9 1.9 1.1 0 1.9-.8 1.9-1.9V19.3c0-1-.8-1.9-1.9-1.9-1.1 0-1.9.8-1.9 1.9z"/></svg>

<?xml version="1.0" encoding="UTF-8"?>
<svg width="52px" height="49px" viewBox="0 0 52 49" version="1.1" xmlns="http://www.w3.org/2000/svg">
  <!-- Generator: Sketch 41.2 (35397) - http://www.bohemiancoding.com/sketch -->
  <title>trash_2</title>
  <desc>Created with Sketch.</desc>
  <defs></defs>
  <g id="Page-1" stroke="none" stroke-width="1" fill="none" fill-rule="evenodd">
    <g id="trash_2" fill="#000000">
      <g id="레이어_1">
        <path d="M49.3,7.2 L36.8,7.2 L36.8,6 C36.8,3.6 34.9,0 31.9,0 L20,0 C17,0 15.1,3.5 15.1,6 L15.1,7.2 L2.7,7.2 C1.7,7.2 0.8,8 0.8,9.1 C0.8,10.2 1.6,11 2.7,11 L6.2,11 L7.2,43.2 C7.2,45.9 9.4,48.1 12.1,48.1 L40,48.1 C42.7,48.1 44.8,45.9 44.9,43.2 L45.9,11 L49.4,11 C50.4,11 51.3,10.2 51.3,9.1 C51.3,8 50.3,7.2 49.3,7.2 L49.3,7.2 Z M18.9,6 C18.9,5 19.7,3.8 20,3.8 L32,3.8 C32.3,3.9 33.1,5 33.1,6 L33.1,7.2 L18.9,7.2 L18.9,6 Z M41.1,43 L41.1,43 C41.1,43.7 40.6,44.2 40,44.2 L12.1,44.2 C11.5,44.2 11,43.7 11,43 C11,43 11,43 11,42.9 L10,10.8 L42.2,10.8 L41.1,43 L41.1,43 Z" id="Shape"></path>
        <path d="M17.9,17.4 C16.9,17.4 16,18.2 16,19.3 L16,35.9 C16,36.9 16.8,37.8 17.9,37.8 C19,37.8 19.8,37 19.8,35.9 L19.8,19.3 C19.7,18.2 18.9,17.4 17.9,17.4 Z" id="Shape"></path>
        <path d="M26.6,17.4 C25.6,17.4 24.7,18.2 24.7,19.3 L24.7,35.9 C24.7,36.9 25.5,37.8 26.6,37.8 C27.7,37.8 28.5,37 28.5,35.9 L28.5,19.3 C28.5,18.2 27.7,17.4 26.6,17.4 Z" id="Shape"></path>
        <path d="M33.1,19.3 L33.1,35.9 C33.1,36.9 33.9,37.8 35,37.8 C36.1,37.8 36.9,37 36.9,35.9 L36.9,19.3 C36.9,18.3 36.1,17.4 35,17.4 C33.9,17.4 33.1,18.2 33.1,19.3 Z" id="Shape"></path>
      </g>
    </g>
  </g>
</svg>
